symbols/web/battery_5_bar/materialsymbolsoutlined/battery_5_bar_wght300gradN25_48px.svg

<svg xmlns="http://www.w3.org/2000/svg" height="48" width="48"><path d="M16.45 42.45q-.65 0-1.025-.375-.375-.375-.375-1.025V9.95q0-.6.4-.975t1-.375h3.95V5.55h7.25V8.6h3.95q.55 0 .975.375.425.375.425.975v31.1q0 .65-.4 1.025-.4.375-1 .375Zm.8-23.25H30.8v-8.45H17.25Z"/></svg>

<svg xmlns="http://www.w3.org/2000/svg" height="48" width="48"><path d="M16.45 42.45Q15.8 42.45 15.425 42.075Q15.05 41.7 15.05 41.05V9.95Q15.05 9.35 15.45 8.975Q15.85 8.6 16.45 8.6H20.4V5.55H27.65V8.6H31.6Q32.15 8.6 32.575 8.975Q33 9.35 33 9.95V41.05Q33 41.7 32.6 42.075Q32.2 42.45 31.6 42.45ZM17.25 19.2H30.8V10.75H17.25Z"/></svg>
